X: 706
T: Hunter's Purse
B: jims roots
M:4/4
L:1/8
R: reel
Q: 1/4=100
K:Dmix
V:1 
|:ed | "Am"cAAB AGEF|"G"GEAE GEDG|"Am"EAAB cBcd|eage "G"dged|
     "Am"cAAB AGEF|"G"GEAF GED2|"Am"ecdf edcA | "E7"(3cBA BG "Am"A2:|
|:cd | "Am"eaab agef|"G"gfaf gedB|"Am"c2ce d2df|"G"eage d2cd|
      "Am"eaag agef|"G"gfaf gede|"Am"cBcd efgb| "E7"afge "Am"d2 :|
% abcbook-tune_id 6298c25dd286244a04aff2cd


% abcbook-boost 0
% abcbook-tablature 
% abcbook-transpose 
% abcbook-lastupdated 1654178399392
% abcbook-soundfonts 
% abcbook-repeats 1


